theme/essential/pix_core/t/block.svg

<!DOCTYPE svg PUBLIC "-//W3C//DTD SVG 1.1//EN" "http://www.w3.org/Graphics/SVG/1.1/DTD/svg11.dtd" [
	<!ENTITY ns_flows "http://ns.adobe.com/Flows/1.0/">
]><svg xmlns="http://www.w3.org/2000/svg" width="12" height="12" viewBox="0 0 12 12" preserveAspectRatio="xMinYMid meet" overflow="visible"><path d="M6 0c-3.3 0-6 2.7-6 6s2.7 6 6 6 6-2.7 6-6-2.7-6-6-6zm0 2.5c.5 0 1 .1 1.4.3l-4.6 4.6c-.2-.4-.3-.9-.3-1.4 0-1.9 1.6-3.5 3.5-3.5zm0 7c-.5 0-1-.1-1.4-.3l4.6-4.6c.2.4.3.9.3 1.4 0 1.9-1.6 3.5-3.5 3.5z" fill="#999"/></svg>

<?xml version="1.0" encoding="utf-8"?>
<!-- Generator: Adobe Illustrator 15.1.0, SVG Export Plug-In  -->
<!DOCTYPE svg PUBLIC "-//W3C//DTD SVG 1.1//EN" "http://www.w3.org/Graphics/SVG/1.1/DTD/svg11.dtd" [
	<!ENTITY ns_flows "http://ns.adobe.com/Flows/1.0/">
]>
<svg version="1.1"
	 xmlns="http://www.w3.org/2000/svg" xmlns:xlink="http://www.w3.org/1999/xlink" xmlns:a="http://ns.adobe.com/AdobeSVGViewerExtensions/3.0/"
	 x="0px" y="0px" width="12px" height="12px" viewBox="0 0 12 12" style="overflow:visible;enable-background:new 0 0 12 12;"
	 xml:space="preserve" preserveAspectRatio="xMinYMid meet">
<defs>
</defs>
<path style="fill:#29a1c4;" d="M6,0C2.7,0,0,2.7,0,6c0,3.3,2.7,6,6,6s6-2.7,6-6C12,2.7,9.3,0,6,0z M6,2.5c0.5,0,1,0.1,1.4,0.3
	L2.8,7.4C2.6,7,2.5,6.5,2.5,6C2.5,4.1,4.1,2.5,6,2.5z M6,9.5c-0.5,0-1-0.1-1.4-0.3l4.6-4.6C9.4,5,9.5,5.5,9.5,6
	C9.5,7.9,7.9,9.5,6,9.5z"/>
</svg>
